src/hand2.svg

<?xml version="1.0" encoding="UTF-8" standalone="no"?>
<!-- Created with Inkscape (http://www.inkscape.org/) -->

<svg
   xmlns:osb="http://www.openswatchbook.org/uri/2009/osb"
   xmlns:dc="http://purl.org/dc/elements/1.1/"
   xmlns:cc="http://creativecommons.org/ns#"
   xmlns:rdf="http://www.w3.org/1999/02/22-rdf-syntax-ns#"
   xmlns:svg="http://www.w3.org/2000/svg"
   xmlns="http://www.w3.org/2000/svg"
   xmlns:sodipodi="http://sodipodi.sourceforge.net/DTD/sodipodi-0.dtd"
   xmlns:inkscape="http://www.inkscape.org/namespaces/inkscape"
   width="24"
   height="24"
   id="svg2"
   version="1.1"
   inkscape:version="0.48.4 r9939"
   sodipodi:docname="hand-wo-bttm-slim-new.svg"
   inkscape:export-filename="/home/umut/Dropbox/Mouse Cursor Theme/Numix/hand/cursor/hand-wo-bttm.png"
   inkscape:export-xdpi="90"
   inkscape:export-ydpi="90">
  <defs
     id="defs4">
    <linearGradient
       id="linearGradient5179-1-3"
       osb:paint="solid"
       gradientTransform="matrix(0.38299175,0,0,0.38299175,185.97435,205.35914)">
      <stop
         style="stop-color:#d64933;stop-opacity:1;"
         offset="0"
         id="stop5181-2-7" />
    </linearGradient>
  </defs>
  <sodipodi:namedview
     id="base"
     pagecolor="#ffffff"
     bordercolor="#666666"
     borderopacity="1.0"
     inkscape:pageopacity="0.0"
     inkscape:pageshadow="2"
     inkscape:zoom="8"
     inkscape:cx="32.012661"
     inkscape:cy="19.862148"
     inkscape:document-units="px"
     inkscape:current-layer="layer2"
     showgrid="true"
     inkscape:window-width="1861"
     inkscape:window-height="1176"
     inkscape:window-x="1979"
     inkscape:window-y="24"
     inkscape:window-maximized="1"
     inkscape:snap-bbox="false"
     inkscape:object-nodes="true"
     inkscape:snap-smooth-nodes="false"
     showguides="false"
     inkscape:guide-bbox="true"
     inkscape:snap-object-midpoints="true"
     inkscape:bbox-nodes="true"
     inkscape:snap-bbox-edge-midpoints="true"
     inkscape:bbox-paths="true"
     inkscape:snap-bbox-midpoints="false"
     inkscape:object-paths="false"
     inkscape:snap-intersection-paths="true"
     inkscape:snap-nodes="true"
     inkscape:snap-center="false"
     inkscape:snap-grids="false"
     inkscape:snap-to-guides="false">
    <inkscape:grid
       type="xygrid"
       id="grid2993"
       empspacing="5"
       visible="true"
       enabled="true"
       snapvisiblegridlinesonly="true"
       dotted="false" />
    <sodipodi:guide
       orientation="1,0"
       position="12,16"
       id="guide3851" />
    <sodipodi:guide
       orientation="0,1"
       position="13,12"
       id="guide3853" />
  </sodipodi:namedview>
  <metadata
     id="metadata7">
    <rdf:RDF>
      <cc:Work
         rdf:about="">
        <dc:format>image/svg+xml</dc:format>
        <dc:type
           rdf:resource="http://purl.org/dc/dcmitype/StillImage" />
        <dc:title />
      </cc:Work>
    </rdf:RDF>
  </metadata>
  <g
     inkscape:label="Layer 1"
     inkscape:groupmode="layer"
     id="layer1"
     transform="translate(0,-1028.3622)"
     style="display:inline">
    <path
       style="fill:#e8e8e8;stroke:#2d2d2d;stroke-width:1.39070714;stroke-linecap:butt;stroke-linejoin:round;stroke-miterlimit:4;stroke-opacity:1;stroke-dasharray:none;display:inline"
       d="m 3.8631393,1030.0353 4.2710839,0 0,5.8775 0,4.4081 0,-4.4081 4.2710848,0 0,4.4081 0,-4.4081 4.271084,0 0,4.4081 0,-4.4081 4.271082,0 0,10.2856 -17.0843347,0 0,-4.4081 -2.8473893,0 0,-4.4082 2.8473893,0 z"
       id="path3821"
       inkscape:connector-curvature="0"
       sodipodi:nodetypes="ccccccccccccccccccc" />
  </g>
  <g
     inkscape:groupmode="layer"
     id="layer3"
     inkscape:label="Layer 2">
    <path
       style="fill:#d64933;stroke:none;display:inline"
       d="m 7.4948955,2.3196421 -3.3250369,0 0,2.9414131 3.3250369,0 z"
       id="path3833"
       inkscape:connector-curvature="0"
       sodipodi:nodetypes="ccccc" />
  </g>
  <g
     inkscape:groupmode="layer"
     id="layer2"
     inkscape:label="Layer 3">
    <path
       sodipodi:nodetypes="ccccccccccccccccccc"
       inkscape:connector-curvature="0"
       id="path5110"
       d="m 3.8631393,1.6730175 4.2710839,0 0,5.8774699 0,4.4081016 0,-4.4081016 4.2710848,0 0,4.4081016 0,-4.4081016 4.271084,0 0,4.4081016 0,-4.4081016 4.271082,0 0,10.2855736 -17.0843347,0 0,-4.408104 0,-0.165714 0,-4.6356901 0,0.3933034 z"
       style="fill:none;stroke:#2d2d2d;stroke-width:1.39070714;stroke-linecap:butt;stroke-linejoin:round;stroke-miterlimit:4;stroke-opacity:1;stroke-dasharray:none;display:inline" />
  </g>
  <g
     inkscape:groupmode="layer"
     id="layer4"
     inkscape:label="Layer 4"
     style="display:inline" />
  <g
     inkscape:groupmode="layer"
     id="layer5"
     inkscape:label="Layer 5"
     style="display:inline" />
</svg>

<?xml version="1.0" encoding="UTF-8" standalone="no"?>
<!-- Created with Inkscape (http://www.inkscape.org/) -->

<svg
   xmlns:osb="http://www.openswatchbook.org/uri/2009/osb"
   xmlns:dc="http://purl.org/dc/elements/1.1/"
   xmlns:cc="http://creativecommons.org/ns#"
   xmlns:rdf="http://www.w3.org/1999/02/22-rdf-syntax-ns#"
   xmlns:svg="http://www.w3.org/2000/svg"
   xmlns="http://www.w3.org/2000/svg"
   xmlns:sodipodi="http://sodipodi.sourceforge.net/DTD/sodipodi-0.dtd"
   xmlns:inkscape="http://www.inkscape.org/namespaces/inkscape"
   width="24"
   height="24"
   id="svg2"
   version="1.1"
   inkscape:version="0.92.4 5da689c313, 2019-01-14"
   sodipodi:docname="hand2.svg"
   inkscape:export-filename="/home/yutyo/git/mer-cursor/src/hand2.png"
   inkscape:export-xdpi="90"
   inkscape:export-ydpi="90">
  <defs
     id="defs4">
    <linearGradient
       id="linearGradient5179-1-3"
       osb:paint="solid"
       gradientTransform="matrix(0.38299175,0,0,0.38299175,185.97435,205.35914)">
      <stop
         style="stop-color:#d64933;stop-opacity:1;"
         offset="0"
         id="stop5181-2-7" />
    </linearGradient>
  </defs>
  <sodipodi:namedview
     id="base"
     pagecolor="#ffffff"
     bordercolor="#666666"
     borderopacity="1.0"
     inkscape:pageopacity="0.0"
     inkscape:pageshadow="2"
     inkscape:zoom="17.71875"
     inkscape:cx="18.068285"
     inkscape:cy="15.995907"
     inkscape:document-units="px"
     inkscape:current-layer="layer1"
     showgrid="true"
     inkscape:window-width="1326"
     inkscape:window-height="718"
     inkscape:window-x="40"
     inkscape:window-y="25"
     inkscape:window-maximized="1"
     inkscape:snap-bbox="false"
     inkscape:object-nodes="true"
     inkscape:snap-smooth-nodes="false"
     showguides="false"
     inkscape:guide-bbox="true"
     inkscape:snap-object-midpoints="true"
     inkscape:bbox-nodes="true"
     inkscape:snap-bbox-edge-midpoints="true"
     inkscape:bbox-paths="true"
     inkscape:snap-bbox-midpoints="false"
     inkscape:object-paths="false"
     inkscape:snap-intersection-paths="true"
     inkscape:snap-nodes="true"
     inkscape:snap-center="false"
     inkscape:snap-grids="false"
     inkscape:snap-to-guides="false">
    <inkscape:grid
       type="xygrid"
       id="grid2993"
       empspacing="5"
       visible="true"
       enabled="true"
       snapvisiblegridlinesonly="true"
       dotted="false" />
    <sodipodi:guide
       orientation="1,0"
       position="12,16"
       id="guide3851"
       inkscape:locked="false" />
    <sodipodi:guide
       orientation="0,1"
       position="13,12"
       id="guide3853"
       inkscape:locked="false" />
  </sodipodi:namedview>
  <metadata
     id="metadata7">
    <rdf:RDF>
      <cc:Work
         rdf:about="">
        <dc:format>image/svg+xml</dc:format>
        <dc:type
           rdf:resource="http://purl.org/dc/dcmitype/StillImage" />
        <dc:title></dc:title>
      </cc:Work>
    </rdf:RDF>
  </metadata>
  <g
     inkscape:label="Layer 1"
     inkscape:groupmode="layer"
     id="layer1"
     transform="translate(0,-1028.3622)"
     style="display:inline">
    <path
       style="display:inline;fill:#404040;stroke:#2d2d2d;stroke-width:1.39070714;stroke-linecap:butt;stroke-linejoin:round;stroke-miterlimit:4;stroke-dasharray:none;stroke-opacity:1"
       d="m 3.8631393,1030.0353 h 4.2710839 v 5.8775 4.4081 -4.4081 h 4.2710848 v 4.4081 -4.4081 h 4.271084 v 4.4081 -4.4081 h 4.271082 v 10.2856 H 3.8631393 v -4.4081 H 1.01575 v -4.4082 h 2.8473893 z"
       id="path3821"
       inkscape:connector-curvature="0"
       sodipodi:nodetypes="ccccccccccccccccccc" />
  </g>
  <g
     inkscape:groupmode="layer"
     id="layer3"
     inkscape:label="Layer 2">
    <path
       style="display:inline;fill:#ff6600;stroke:none"
       d="M 7.4948955,2.3196421 H 4.1698586 v 2.9414131 h 3.3250369 z"
       id="path3833"
       inkscape:connector-curvature="0"
       sodipodi:nodetypes="ccccc" />
  </g>
  <g
     inkscape:groupmode="layer"
     id="layer2"
     inkscape:label="Layer 3">
    <path
       sodipodi:nodetypes="ccccccccccccccccccc"
       inkscape:connector-curvature="0"
       id="path5110"
       d="M 3.8631393,1.6730175 H 8.1342232 V 7.5504874 11.958589 7.5504874 H 12.405308 V 11.958589 7.5504874 h 4.271084 V 11.958589 7.5504874 h 4.271082 V 17.836061 H 3.8631393 V 13.427957 13.262243 8.6265529 9.0198563 Z"
       style="display:inline;fill:none;stroke:#2d2d2d;stroke-width:1.39070714;stroke-linecap:butt;stroke-linejoin:round;stroke-miterlimit:4;stroke-dasharray:none;stroke-opacity:1" />
  </g>
  <g
     inkscape:groupmode="layer"
     id="layer4"
     inkscape:label="Layer 4"
     style="display:inline" />
  <g
     inkscape:groupmode="layer"
     id="layer5"
     inkscape:label="Layer 5"
     style="display:inline" />
</svg>
